src/assets/images/services/the-graph.svg

<svg width="36" height="36" viewBox="0 0 36 36" fill="none" xmlns="http://www.w3.org/2000/svg">
<path d="M18 36C27.9411 36 36 27.9411 36 18C36 8.05887 27.9411 0 18 0C8.05887 0 0 8.05887 0 18C0 27.9411 8.05887 36 18 36Z" fill="#6747ED"/>
<path fill-rule="evenodd" clip-rule="evenodd" d="M17.7375 20.325C15.075 20.325 12.9375 18.1875 12.9375 15.525C12.9375 12.8625 15.075 10.725 17.7375 10.725C20.4 10.725 22.5375 12.8625 22.5375 15.525C22.5375 18.1875 20.4 20.325 17.7375 20.325ZM17.7375 8.32495C21.7125 8.32495 24.9375 11.55 24.9375 15.525C24.9375 19.5 21.7125 22.725 17.7375 22.725C13.7625 22.725 10.5375 19.5 10.5375 15.525C10.5375 11.55 13.7625 8.32495 17.7375 8.32495ZM24.6 23.1C25.0875 23.5875 25.0875 24.3375 24.6 24.7875L19.8 29.5875C19.3125 30.075 18.5625 30.075 18.1125 29.5875C17.625 29.1 17.625 28.35 18.1125 27.9L22.9125 23.1C23.3625 22.6125 24.15 22.6125 24.6 23.1ZM27.375 9.52495C27.375 10.2 26.85 10.725 26.175 10.725C25.5 10.725 24.975 10.2 24.975 9.52495C24.975 8.84995 25.5 8.32495 26.175 8.32495C26.8125 8.32495 27.375 8.84995 27.375 9.52495Z" fill="white"/>
</svg>

<svg xmlns="http://www.w3.org/2000/svg" width="36" height="36" fill="none"><path fill="#6747ED" d="M18 36c9.941 0 18-8.059 18-18S27.941 0 18 0 0 8.059 0 18s8.059 18 18 18"/><path fill="#fff" fill-rule="evenodd" d="M17.738 20.325a4.785 4.785 0 0 1-4.8-4.8c0-2.662 2.137-4.8 4.8-4.8s4.8 2.138 4.8 4.8-2.138 4.8-4.8 4.8m0-12c3.974 0 7.2 3.225 7.2 7.2s-3.226 7.2-7.2 7.2a7.2 7.2 0 0 1-7.2-7.2c0-3.975 3.224-7.2 7.2-7.2M24.6 23.1c.487.487.487 1.237 0 1.688l-4.8 4.8c-.488.487-1.238.487-1.687 0-.488-.488-.488-1.238 0-1.688l4.8-4.8a1.156 1.156 0 0 1 1.687 0m2.775-13.575c0 .675-.525 1.2-1.2 1.2s-1.2-.525-1.2-1.2.525-1.2 1.2-1.2c.637 0 1.2.525 1.2 1.2" clip-rule="evenodd"/></svg>
